lib/brands/icons/mocha.svg

<svg xmlns="http://www.w3.org/2000/svg" fill="none" aria-hidden="true" viewBox="0 0 48 48"><g id="mocha-Icon"><g id="Group"><path id="Vector" fill="#8D6748" d="M38.8794 33.7005L24.9664 41.7392C24.3674 42.0869 23.633 42.0869 23.034 41.7392L9.12098 33.7005C8.52195 33.3526 8.15479 32.715 8.15479 32.0387V15.9613C8.15479 15.2657 8.52195 14.6474 9.12098 14.2995L23.034 6.2608C23.633 5.91307 24.3674 5.91307 24.9664 6.2608L38.8794 14.2995C39.4785 14.6474 39.8456 15.285 39.8456 15.9613V32.0387C39.8263 32.715 39.4592 33.3526 38.8794 33.7005Z"/><path id="Vector_2" fill="white" d="M23.981 8.44443C23.6912 8.44443 23.4012 8.52167 23.1501 8.67629L11.1307 15.6135C10.6089 15.9034 10.2998 16.4637 10.2998 17.0434V30.9178C10.2998 31.5168 10.6089 32.0579 11.1307 32.3479L23.1501 39.2851C23.4012 39.4397 23.6912 39.5169 23.981 39.5169C24.2708 39.5169 24.5607 39.4397 24.8119 39.2851L36.8312 32.3479C37.353 32.0579 37.6621 31.4975 37.6621 30.9179V17.0434C37.6621 16.4444 37.353 15.9034 36.8312 15.6135L24.8119 8.67629C24.5607 8.52167 24.2708 8.44443 23.981 8.44443ZM23.981 9.02415C24.1742 9.02415 24.3481 9.08208 24.5221 9.17876L36.5413 16.116C36.8699 16.3092 37.0824 16.6764 37.0824 17.0629V30.9373C37.0824 31.3237 36.8699 31.6908 36.5413 31.884L24.5221 38.8212C24.3481 38.9179 24.1742 38.9758 23.981 38.9758C23.7877 38.9758 23.5945 38.9179 23.4399 38.8212L11.4206 31.884C11.0921 31.6908 10.8795 31.3237 10.8795 30.9373V17.0629C10.8795 16.6764 11.0921 16.3092 11.4206 16.116L23.4399 9.17876C23.6138 9.08208 23.807 9.02415 23.981 9.02415ZM22.8698 21.1208H24.493C24.551 21.1208 24.5897 21.1014 24.6283 21.0628C25.5945 19.9807 25.6912 17.7197 25.6912 17.0435C25.6912 16.9469 25.6138 16.8502 25.4979 16.8502H23.6814H21.865C21.7684 16.8502 21.6718 16.9275 21.6718 17.0435C21.6718 17.7004 21.7684 19.9614 22.7346 21.0628C22.7733 21.1014 22.8119 21.1208 22.8698 21.1208ZM22.4254 17.4493H23.7007H24.9761C25.0727 17.4493 25.1694 17.5265 25.1694 17.6425C25.1694 18.1836 25.0727 19.7101 24.4157 20.5023C24.3578 20.5411 24.3192 20.5604 24.2611 20.5604H23.1211C23.0631 20.5604 23.0244 20.5411 22.9858 20.5023C22.3287 19.7295 22.2515 18.1836 22.2322 17.6425C22.2322 17.5459 22.3094 17.4493 22.4254 17.4493ZM24.0486 16.4638C24.0486 16.4638 24.7443 16.058 24.3191 15.3236C24.0679 14.9372 23.952 14.6087 24.0486 14.4734C23.7974 14.7827 23.3723 15.1111 23.836 15.8068C23.9907 15.9807 24.0679 16.3478 24.0486 16.4638ZM23.2757 16.5217C23.2757 16.5217 23.7394 16.2512 23.4496 15.7488C23.2757 15.4976 23.1984 15.2657 23.2757 15.1884C23.1017 15.4009 22.8312 15.6135 23.1404 16.0966C23.237 16.1932 23.2757 16.4445 23.2757 16.5217ZM23.2177 20.3285H24.1839C24.2225 20.3285 24.2611 20.3092 24.2998 20.2706C24.6283 19.8841 24.7829 19.285 24.8602 18.7633C24.8602 18.7633 24.8409 18.9372 24.3771 19.1111C23.7395 19.343 22.6187 19.1884 22.6187 19.1884C22.7152 19.5942 22.8698 19.9806 23.1017 20.2706C23.121 20.3092 23.1791 20.3285 23.2177 20.3285ZM15.952 25.7585V21.8938H15.237L14.0582 23.7102L12.8795 21.8938H12.1646V25.7778H12.8408V23.0145L14.0389 24.8116H14.0582L15.2757 22.9952V25.7585H15.952ZM20.2805 21.9711C20.0292 21.8744 19.7587 21.8165 19.4689 21.8165C19.179 21.8165 18.9085 21.8551 18.6572 21.9711C18.4061 22.0676 18.1935 22.2222 18.0196 22.3962C17.8263 22.5894 17.6912 22.802 17.5945 23.0338C17.4979 23.285 17.4399 23.5362 17.4399 23.8068V23.8261C17.4399 24.0966 17.4979 24.3672 17.5945 24.5991C17.6912 24.8502 17.8263 25.0628 18.0003 25.2367C18.1742 25.4106 18.3868 25.5653 18.6379 25.6618C18.8892 25.7585 19.1597 25.8164 19.4495 25.8164C19.7394 25.8164 20.0099 25.7778 20.2612 25.6618C20.5124 25.5653 20.7249 25.4106 20.8989 25.2367C21.0921 25.0435 21.2273 24.8309 21.324 24.5991C21.4205 24.3479 21.4786 24.0966 21.4786 23.8261V23.8068C21.4786 23.5362 21.4205 23.2657 21.324 23.0338C21.2273 22.7827 21.0921 22.5701 20.9182 22.3962C20.7443 22.2222 20.5317 22.0676 20.2805 21.9711ZM20.7443 23.8454C20.7443 24.0193 20.7056 24.1933 20.6476 24.3672C20.5703 24.5217 20.4931 24.6763 20.3771 24.7923C20.2612 24.9082 20.1259 25.0049 19.9713 25.0821C19.8167 25.1595 19.6427 25.1981 19.4495 25.1981C19.2757 25.1981 19.0825 25.1595 18.9278 25.0821C18.7732 25.0049 18.6379 24.9082 18.5221 24.7923C18.4061 24.657 18.3095 24.5217 18.2514 24.3479C18.1935 24.174 18.1549 24 18.1549 23.8068V23.7875C18.1549 23.6135 18.1935 23.4396 18.2514 23.2657C18.3288 23.1111 18.4061 22.9566 18.5221 22.8406C18.6379 22.7246 18.7732 22.628 18.9278 22.5507C19.0825 22.4734 19.2563 22.4348 19.4495 22.4348C19.6427 22.4348 19.8167 22.4734 19.9713 22.5507C20.1259 22.628 20.2612 22.7246 20.3771 22.8406C20.4931 22.9759 20.5896 23.1111 20.6476 23.285C20.7056 23.4589 20.7443 23.6329 20.7443 23.8261V23.8454ZM23.6042 23.2657C23.6814 23.1111 23.7588 22.9565 23.8746 22.8406C23.9906 22.7246 24.1259 22.628 24.2804 22.5507C24.435 22.4734 24.5897 22.4348 24.7829 22.4348C25.0148 22.4348 25.208 22.4734 25.3819 22.57C25.5559 22.6667 25.7105 22.7827 25.865 22.9178L26.3095 22.4155C26.2128 22.3188 26.1163 22.2416 26.0196 22.1642C25.923 22.0869 25.807 22.029 25.6912 21.9709C25.5559 21.9323 25.4399 21.8937 25.2853 21.8551C25.1308 21.8358 24.9761 21.8165 24.8022 21.8165C24.493 21.8165 24.2418 21.8744 23.9906 21.9709C23.7395 22.0676 23.5269 22.2222 23.353 22.3962C23.1791 22.5894 23.0437 22.802 22.9472 23.0338C22.8505 23.2657 22.7926 23.5362 22.7926 23.8068V23.8261C22.7926 24.0966 22.8505 24.3478 22.9472 24.5991C23.0437 24.8502 23.1791 25.0628 23.353 25.2367C23.5269 25.4106 23.7395 25.5653 23.9713 25.6618C24.2032 25.7585 24.4544 25.8164 24.7443 25.8164C24.9182 25.8164 25.092 25.8164 25.2659 25.7778C25.4012 25.7585 25.5559 25.7004 25.6717 25.6425C25.7877 25.5846 25.9037 25.5265 26.0196 25.43C26.1356 25.3333 26.2321 25.256 26.3288 25.14L25.8844 24.6956C25.7105 24.8502 25.5366 24.9662 25.3819 25.0628C25.2273 25.1595 25.0148 25.1981 24.7829 25.1981C24.609 25.1981 24.435 25.14 24.2804 25.0821C24.1259 25.0242 23.9906 24.9082 23.8746 24.7923C23.7588 24.657 23.6621 24.5217 23.6042 24.3478C23.5462 24.174 23.5075 24 23.5075 23.8068V23.7875C23.5075 23.6135 23.5462 23.4396 23.6042 23.2657ZM27.6815 21.8937V25.7584H28.3577V24.1352H30.2129V25.7584H30.8892V21.8937H30.2129V23.4976H28.3577V21.8937H27.6815ZM35.1018 24.8309L35.4883 25.7585H36.2032L34.5028 21.8744H33.8843L32.1839 25.7585H32.8795L33.2853 24.8309H35.1018ZM34.1935 22.686L34.8505 24.2319H33.5366L34.1935 22.686ZM11.6815 27.1884H36.3191V26.9758H11.6815V27.1884ZM25.8457 19.7101C25.8457 19.7874 25.8264 19.8454 25.8264 19.9227H36.3192V19.7101H25.8457ZM21.5365 19.7101H11.6814V19.9227H21.5558C21.5558 19.8454 21.5365 19.7874 21.5365 19.7101Z"/></g></g></svg>

<svg xmlns="http://www.w3.org/2000/svg" fill="none" aria-hidden="true" viewBox="0 0 48 48"><path fill="#8D6748" d="m38.88 33.7-13.914 8.04a1.92 1.92 0 0 1-1.932 0L9.121 33.7a1.932 1.932 0 0 1-.966-1.661V15.96c0-.695.367-1.314.966-1.662L23.034 6.26a1.92 1.92 0 0 1 1.932 0l13.913 8.038c.6.348.967.986.967 1.662v16.08a2.018 2.018 0 0 1-.967 1.661Z"/><path fill="#fff" d="M23.981 8.444c-.29 0-.58.078-.83.232l-12.02 6.938a1.64 1.64 0 0 0-.831 1.43v13.874c0 .599.309 1.14.83 1.43l12.02 6.937c.251.155.541.232.831.232.29 0 .58-.077.83-.232l12.02-6.937c.522-.29.831-.85.831-1.43V17.043c0-.599-.309-1.14-.83-1.43l-12.02-6.937a1.587 1.587 0 0 0-.831-.232Zm0 .58c.193 0 .367.058.541.155l12.02 6.937c.328.193.54.56.54.947v13.874c0 .387-.212.754-.54.947l-12.02 6.937a1.093 1.093 0 0 1-.541.155c-.193 0-.387-.058-.541-.155l-12.02-6.937a1.112 1.112 0 0 1-.54-.947V17.063c0-.387.212-.754.54-.947l12.02-6.937c.174-.097.367-.155.541-.155ZM22.87 21.121h1.623c.058 0 .097-.02.135-.058.966-1.082 1.063-3.343 1.063-4.02a.194.194 0 0 0-.193-.193h-3.633a.194.194 0 0 0-.193.194c0 .656.096 2.917 1.063 4.019a.176.176 0 0 0 .135.058Zm-.445-3.672h2.551c.097 0 .193.077.193.193 0 .542-.096 2.068-.753 2.86-.058.04-.097.058-.155.058h-1.14a.175.175 0 0 1-.135-.058c-.657-.772-.735-2.318-.754-2.86 0-.096.077-.193.193-.193Zm1.624-.985s.695-.406.27-1.14c-.251-.387-.367-.715-.27-.85-.252.309-.677.637-.213 1.333.155.174.232.54.213.657Zm-.773.058s.463-.27.174-.773c-.174-.251-.252-.483-.174-.56-.174.212-.445.425-.136.908.097.096.136.348.136.425Zm-.058 3.806h.966c.038 0 .077-.019.116-.057.328-.387.483-.986.56-1.508 0 0-.02.174-.483.348-.637.232-1.758.077-1.758.077.096.406.25.793.483 1.083.019.038.077.057.116.057Zm-7.266 5.43v-3.864h-.715l-1.179 1.816-1.178-1.816h-.715v3.884h.676v-2.763l1.198 1.797h.02l1.217-1.817v2.764h.676Zm4.329-3.787a2.245 2.245 0 0 0-.812-.154 1.9 1.9 0 0 0-.812.154 1.844 1.844 0 0 0-.637.425 1.941 1.941 0 0 0-.425.638 2.12 2.12 0 0 0-.155.773v.02c0 .27.058.54.154.772a1.845 1.845 0 0 0 1.043 1.063c.252.097.523.154.813.154.29 0 .56-.038.811-.154.251-.097.464-.251.638-.425.193-.193.328-.406.425-.638.096-.251.155-.502.155-.773v-.02c0-.27-.058-.54-.155-.772a1.843 1.843 0 0 0-1.044-1.063Zm.463 1.874c0 .174-.038.348-.096.522-.078.155-.155.31-.27.425a1.545 1.545 0 0 1-.407.29 1.15 1.15 0 0 1-.521.116 1.21 1.21 0 0 1-.522-.116 1.543 1.543 0 0 1-.406-.29 1.312 1.312 0 0 1-.27-.444 1.679 1.679 0 0 1-.097-.541v-.02c0-.174.038-.347.096-.521.078-.155.155-.31.271-.425.116-.116.251-.213.406-.29a1.15 1.15 0 0 1 .521-.116c.194 0 .368.038.522.116.155.077.29.174.406.29.116.135.213.27.27.444.059.174.097.348.097.541v.02Zm2.86-.58c.077-.154.155-.309.27-.424.117-.116.252-.213.406-.29a1.07 1.07 0 0 1 .503-.116c.232 0 .425.038.599.135s.328.213.483.348l.445-.502c-.097-.097-.194-.174-.29-.252-.097-.077-.213-.135-.329-.193-.135-.039-.251-.077-.406-.116a3.768 3.768 0 0 0-.483-.038c-.309 0-.56.057-.811.154a1.847 1.847 0 0 0-.638.425 2.23 2.23 0 0 0-.406.638 2.041 2.041 0 0 0-.154.773v.02c0 .27.058.52.154.772.097.251.232.464.406.638.174.174.386.328.618.425.232.097.483.154.773.154.174 0 .348 0 .522-.038.135-.02.29-.078.406-.136.116-.057.232-.116.348-.212.116-.097.212-.174.309-.29l-.445-.444a3.63 3.63 0 0 1-.502.367c-.155.097-.367.135-.6.135a1.47 1.47 0 0 1-.502-.116 1.204 1.204 0 0 1-.405-.29 1.31 1.31 0 0 1-.27-.444 1.675 1.675 0 0 1-.098-.541v-.02c0-.174.04-.347.097-.521Zm4.078-1.371v3.864h.676v-1.623h1.855v1.623h.676v-3.864h-.676v1.604h-1.855v-1.604h-.677Zm7.42 2.937.386.928h.715l-1.7-3.885h-.619l-1.7 3.885h.696l.405-.928h1.817Zm-.908-2.145.656 1.546h-1.313l.657-1.546ZM11.68 27.188h24.64v-.212H11.681v.212Zm14.165-7.478c0 .077-.02.135-.02.213H36.32v-.213H25.846Zm-4.31 0H11.68v.213h9.875c0-.078-.02-.136-.02-.213Z"/></svg>
